icons/linear-new-other-diamond-sketch.svg

<svg xmlns="http://www.w3.org/2000/svg" width="32px" height="32px" viewBox="0 0 32 32" version="1.1">
    <title>linear-new-other-diamond-sketch</title>
    <g id="linear-new-other-diamond-sketch" stroke-width="1" fill-rule="evenodd">
        <path d="M15.9428328,29.9983809 L15.9175857,29.9967462 C15.6368532,29.9745356 15.3646284,29.8386153 15.1880224,29.5889852 L1.22806976,12.6357073 C0.934797327,12.2795907 0.92320048,11.769066 1.2,11.4 L7.2,3.4 C7.38885438,3.14819416 7.6852427,3 7.99999918,3 L23.9999992,3 C24.3147573,3 24.6111456,3.14819416 24.8,3.4 L30.8,11.4 C31.0767995,11.769066 31.0652027,12.2795907 30.7719302,12.6357073 L16.8119776,29.5889852 C16.6353716,29.8386153 16.3631468,29.9745356 16.0824143,29.9967462 C16.0359882,30.000434 15.9893345,30.0010173 15.9428328,29.9983809 Z M20.1249992,13 L11.8739992,13 L16,25.751 L20.1249992,13 Z M27.8809992,13 L22.2269992,13 L18.5679992,24.309 L27.8809992,13 Z M9.77199918,13 L4.11799918,13 L13.4299992,24.307 L9.77199918,13 Z M14.0979992,5 L8.49999918,5 L3.99999918,11 L9.97299918,11 L14.0979992,5 Z M16,5.765 L12.4009992,11 L19.5979992,11 L16,5.765 Z M23.5,5 L17.9009992,5 L22.0259992,11 L27.9999992,11 L23.5,5 Z" id="&#24418;&#29366;" fill-rule="nonzero" />
    </g>
</svg>

<svg xmlns="http://www.w3.org/2000/svg" viewBox="0 0 32 32"><path fill="currentColor" d="m15.943 29.998-.025-.001a.98.98 0 0 1-.73-.408L1.228 12.636A1 1 0 0 1 1.2 11.4l6-8A1 1 0 0 1 8 3h16a1 1 0 0 1 .8.4l6 8a1 1 0 0 1-.028 1.236l-13.96 16.953a.98.98 0 0 1-.87.41M20.125 13h-8.251L16 25.751zm7.756 0h-5.654l-3.659 11.309zM9.772 13H4.118l9.312 11.307zm4.326-8H8.5L4 11h5.973zM16 5.765 12.401 11h7.197zM23.5 5h-5.599l4.125 6H28z"/></svg>
